X:1
T:Nor Silver Nor Gold
T:Daniel Brink Towner
T:Nor Silver Nor Gold
T:Public Domain
T:Public Domain
T:Public Domain
C:Daniel Brink Towner
Z:Public Domain
%%score ( 1 2 ) ( 3 4 )
L:1/8
M:4/4
K:D
V:1 treble 
V:2 treble 
V:3 bass 
V:4 bass 
V:1
 [FA] | [FA]2 [DF][FA] [Fd]2 [FA][DF] | [GA]2 [EG]>[EG] [EG] [CE]2 [EG] | %3
w: 1.~Nor|sil- ver nor gold hath ob-|tained my re- demp- tion, Nor|
w: 2.~Nor|sil- ver nor gold hath ob-|tained my re- demp- tion, The|
w: 3.~Nor|sil- ver nor gold hath ob-|tained my re- demp- tion, The|
w: 4.~Nor|sil- ver nor gold hath ob-|tained my re- demp- tion, The|
 [EG]2 [CE][EG] [GB]2 [FA][FA] | [FA]2 [EG][EG] [DF]3 [FA] | [FA]2 [DF][FA] [Fd]2 [Gc][Ad] | %6
w: rich- es of earth could have|saved my poor soul; The|blood of the cross is my|
w: guilt on my con- science too|heav- y had grown; The|blood of the cross is my|
w: ho- ly com- mand- ment for-|bade me draw near; The|blood of the cross is my|
w: way in- to Heav- en could|not thus be bought; The|blood of the cross is my|
 [Ge]2 [Gd][GB] [GB] [FA]2 [DF] | [CE]2 [DF][E^G] [EA] [Ed]2 [Ec] | [Ec]2 [EB][EB] [EA]2 || %9
w: on- ly found- a- tion, The|death of my Sav- ior now|mak- eth me whole.|
w: on- ly foun- da- tion, The|death of my Sav- ior could|on- ly a- tone.|
w: on- ly found- a- tion, The|death of my Sav- ior re-|mov- eth my fear.|
w: on- ly found- a- tion, The|death of my Sav- ior re-|demp- tion hath wrought.|
"^Refrain" (3A[^GB][=Gc] | [Fd]4- [Fd][Fd] [Gc]>[GB] | [Gc]2 [EG]4 [EG]>[EG] | %12
w: |||
w: I am re-|deemed, * but not with|sil- ver, I am|
w: |||
w: |||
 [Gc]4- [Gc][Gc] [GB]>[EG] | [DF]6 (3A[^GB][=Gc] | [Fd]4- [Fd][Fd] [Ge]>[Fd] | %15
w: |||
w: bought, * but not with|gold; Bought with a|price, * the blood of|
w: |||
w: |||
 [Ac]2 [GB]4 [GB][DB] | [DA]3 [FA] [EG]2 [CE]2 | D6- D |] %18
w: |||
w: Je- sus, Pre- cious|price of love un-|told. *|
w: |||
w: |||
V:2
 x | x8 | x8 | x8 | x8 | x8 | x8 | x8 | x6 || x2 | x8 | x8 | x8 | x8 | x8 | x8 | x8 | D6- D |] %18
V:3
 [D,D] | [D,D]2 [D,A,][D,D] [D,D]2 [D,D][D,A,] | [E,C]2 [C,A,]>[C,A,] [A,,A,] [A,,A,]2 [A,C] | %3
 [A,C]2 [A,C][A,C] [D,D]2 [D,D][F,D] | [A,D]2 [A,,C][A,,C] [D,D]3 [D,D] | %5
 [D,D]2 [D,A,][D,A,] [D,A,]2 [E,A,][F,A,] | [G,B,]2 [G,B,][G,D] [B,,D] [B,,D]2 [D,A,] | %7
 [E,A,]2 [E,^G,][D,B,] [C,A,] [B,,G,]2 [A,,A,] | [E,A,]2 [E,^G,][E,D] [A,,C]2 || z2 | %10
 z2 (3([D,A,][D,A,][D,A,] [D,A,]2) (3([E,A,][E,A,][E,A,]) | (A,>A,) (A,>[A,B,] [A,C][A,C]) z2 | %12
 z2 ([A,E]>[A,E] [A,E]2) [A,,C]>[A,,A,] | ([D,A,]>[D,A,] [D,A,]>[D,A,] [D,A,]2) z2 | %14
 (3([D,A,][D,A,][D,A,] [D,A,]4) z3/2 [D,A,]/ | G,>[G,A,] ([G,B,]>[G,C] [G,D]<[G,D]) [G,D][G,D] | %16
 [F,D]3 [D,D] [A,,C]2 (A,G,) | [D,F,]6- [D,F,] |] %18
V:4
 x | x8 | x8 | x8 | x8 | x8 | x8 | x8 | x6 || x2 | x8 | x8 | x8 | x8 | x8 | x8 | x6 A,,2 | x7 |] %18

